X: 1
T: Keel Row, The
M: 4/4
L: 1/8
R: fling
K: Gmaj
|:c|B2G>B c2A>c|B2G>B A>FD>c|
B2G>B c2A>c|B>GA>F G3:|
|:c|B*dd>g e2d>c|B2G>B A>FD>c|
B*dd>g e2d>c|B>GA>F G3:|
